images/traning-1.svg

<svg width="39" height="45" viewBox="0 0 39 45" fill="none" xmlns="http://www.w3.org/2000/svg">
<path fill-rule="evenodd" clip-rule="evenodd" d="M13.4999 1.5C13.4999 0.671574 14.1715 0 14.9999 0H19.4999H23.9999C24.8283 0 25.4999 0.671574 25.4999 1.5C25.4999 2.32843 24.8283 3 23.9999 3H20.9999V6.35766C24.2949 6.61227 27.357 7.69866 29.976 9.40716C30.0348 9.32553 30.1008 9.24756 30.174 9.17418L33.174 6.17418C33.9063 5.44194 35.0934 5.44194 35.8257 6.17418C36.558 6.90642 36.558 8.09358 35.8257 8.82582L32.901 11.7505C36.4785 15.2377 38.7 20.1094 38.7 25.4999C38.7 36.1038 30.1038 44.7 19.4999 44.7C8.89604 44.7 0.299927 36.1038 0.299927 25.4999C0.299927 15.4008 8.09711 7.1229 17.9999 6.35766V3H14.9999C14.1715 3 13.4999 2.32843 13.4999 1.5ZM3.29993 25.4999C3.29993 16.5529 10.5529 9.29994 19.4999 9.29994C28.4469 9.29994 35.7 16.5529 35.7 25.4999C35.7 34.4469 28.4469 41.7 19.4999 41.7C10.5529 41.7 3.29993 34.4469 3.29993 25.4999Z" fill="#1D5C73"/>
<path fill-rule="evenodd" clip-rule="evenodd" d="M19.2 25.4999V12.2999C11.9098 12.2999 6 18.2097 6 25.4999C6 32.79 11.9098 38.7 19.2 38.7C22.8451 38.7 26.1451 37.2225 28.5337 34.8336L19.2 25.4999Z" fill="#FF8901"/>
</svg>

<svg width="39" height="45" fill="none" xmlns="http://www.w3.org/2000/svg"><path fill-rule="evenodd" clip-rule="evenodd" d="M13.5 1.5A1.5 1.5 0 0115 0h9a1.5 1.5 0 010 3h-3v3.358a19.088 19.088 0 018.976 3.05c.059-.082.125-.16.198-.234l3-3a1.875 1.875 0 012.652 2.652L32.9 11.75a19.142 19.142 0 015.8 13.75c0 10.604-8.596 19.2-19.2 19.2S.3 36.104.3 25.5C.3 15.4 8.097 7.123 18 6.358V3h-3a1.5 1.5 0 01-1.5-1.5zm-10.2 24c0-8.947 7.253-16.2 16.2-16.2s16.2 7.253 16.2 16.2-7.253 16.2-16.2 16.2S3.3 34.447 3.3 25.5z" fill="#1D5C73"/><path fill-rule="evenodd" clip-rule="evenodd" d="M19.2 25.5V12.3C11.91 12.3 6 18.21 6 25.5c0 7.29 5.91 13.2 13.2 13.2 3.645 0 6.945-1.478 9.334-3.866L19.2 25.5z" fill="#FF8901"/></svg>
